X:0204
T:"The Irish Nation"          (air)             0204
C:after Chief F. O'Neill
C:moderate
B:O'Neill's Music Of Ireland (The 1850)   Lyon & Healy, Chicago   1903 ed.
Z:FROM O'NEILL'S TO NOTEWORTHY, FROM NOTEWORTHY TO ABC, MIDI AND .TXT BY VINCE BRENNAN 6-21-03 (HTTP://WWW.SOSYOURMOM.COM)
Q:1/4=90
I:abc2nwc
M:4/4
L:1/8
K:A
"_VB"(c3/2d/2)|e3/2^d/2e3/2f e2c3/2e/2|d3/2c/2BA G2AB|c3/2B/2  (3(cBA) B3/2e/2dB|A4A2z:|
B|A2A2a3g|e3/2d/2e3/2f/2 g3z|A3/2A/2A3/2A/2 a3/2a/2g3/2f/2|g/2e3/2 z2z2(c3/2d/2)|
A2e3/2^d/2e3/2f/2 e2c3/2e/2|d3/2c/2BA G2AB|c3/2B/2  (3(cBA) B3/2e/2d3/2B/2|A4A z|]
